X:98
T:Fantastic Reel
M:C|
L:1/8
Q:120
R:Reel (Key of D)
K:Dmaj
"D"~D3E FEDF | Adcd BAFA | "G"~B3c dBAG | "A"FGEF DB,A,B, |
"D"~D3E FEDF | Adcd BAFA | "G"BABc dBAG |1 "A"FGEF "D"D2 A,B, :|2 "A"FGEF "D"D3g |:
"D"fded cAAg | fdef "G"g2ag | "D"fded cAAF | "A"GBAG "D"FDDg |
fded cAAg | fdef "G"g2fg | "D"afge fded |1 "A"cABc "D"d3g :|2 "A"cABc "D"dBAF |]
